pesthoernchen/Pesthoernchen.svg

<?xml version="1.0" encoding="UTF-8" standalone="no"?>
<svg
   xmlns:dc="http://purl.org/dc/elements/1.1/"
   xmlns:cc="http://creativecommons.org/ns#"
   xmlns:rdf="http://www.w3.org/1999/02/22-rdf-syntax-ns#"
   xmlns:svg="http://www.w3.org/2000/svg"
   xmlns="http://www.w3.org/2000/svg"
   xmlns:sodipodi="http://sodipodi.sourceforge.net/DTD/sodipodi-0.dtd"
   xmlns:inkscape="http://www.inkscape.org/namespaces/inkscape"
   width="700"
   height="608"
   id="svg2"
   version="1.1"
   inkscape:version="0.48.3.1 r9886"
   sodipodi:docname="Pesthoernchen.svg">
  <metadata
     id="metadata10">
    <rdf:RDF>
      <cc:Work
         rdf:about="">
        <dc:format>image/svg+xml</dc:format>
        <dc:type
           rdf:resource="http://purl.org/dc/dcmitype/StillImage" />
      </cc:Work>
    </rdf:RDF>
  </metadata>
  <defs
     id="defs8" />
  <sodipodi:namedview
     pagecolor="#ffffff"
     bordercolor="#666666"
     borderopacity="1"
     objecttolerance="10"
     gridtolerance="10"
     guidetolerance="10"
     inkscape:pageopacity="0"
     inkscape:pageshadow="2"
     inkscape:window-width="1680"
     inkscape:window-height="886"
     id="namedview6"
     showgrid="false"
     inkscape:zoom="0.80014715"
     inkscape:cx="182.75462"
     inkscape:cy="286.76751"
     inkscape:window-x="0"
     inkscape:window-y="27"
     inkscape:window-maximized="1"
     inkscape:current-layer="svg2" />
  <path
     style="fill:#000000;stroke:none;"
     d="M112 141L105 82L105 55C86.9438 55 69.0248 56 51 56C45.7316 56 35.0181 53.2287 30.7423 56.9884C27.9537 59.4404 28.8945 65.6924 29.0394 69C29.5397 80.4263 32 91.6134 32 103C32 156.43 50.8947 211.911 74.1944 259.718C94.243 300.855 125.221 334.586 159.996 363.742C171.363 373.272 184.398 380.399 195.749 389.8C202.369 395.282 199.891 402.401 202.69 409.572C206.629 419.666 214.244 425.077 224.004 429.076C229.822 431.46 233.526 427.559 238.961 427.598C244.933 427.641 249.969 434.957 256.09 435.856C263.218 436.904 267.606 431.509 274.09 431.52C278.032 431.527 281.344 434.395 285 435.454C290.908 437.166 300.047 438.329 306.17 438.44C311.237 438.531 315.735 435.723 321 436.091C332.461 436.891 343.021 440.5 355 438.856C359.88 438.187 364.074 433.584 368.961 433.598C376.506 433.62 383.464 438.143 391.996 437.2C397.409 436.601 400.834 430.186 405.925 430.422C414.623 430.825 420.075 438.463 429.996 435.451C442.218 431.739 438.24 417.616 448.005 412.394C472.539 399.271 498.022 391.049 520.282 373.351C527.205 367.846 537.124 362.151 541 354C548.631 352.586 555.182 341.364 560.388 335.884C574.355 321.185 585.899 303.337 597.045 286.389C601.821 279.126 605.848 268.851 612 263C613.387 255.777 618.934 248.244 622.174 241.575C628.279 229.007 634.713 215.124 639.026 201.83C654.98 152.657 665 104.063 665 52L513 52C513.04 65.9838 517.974 80.1224 518.946 94.0146C520.345 113.999 517.106 134.548 513.376 154C512.13 160.496 511.876 183.482 503.925 185.149C500.185 185.933 498.627 181.854 497.715 178.999C494.752 169.735 492.488 160.676 488.13 151.87C470.758 116.761 448.814 87.3414 417.335 63.3063C394.511 45.8799 367.701 31.2559 339 26.4429C274.66 15.6535 203.974 46.6344 166.953 100.285C154.395 118.485 146.175 138.713 140.843 160.09C139.586 165.131 137.355 170.866 137.044 176C136.81 179.87 138.321 186.213 135.972 189.562C130.945 196.731 126.779 184.867 125.424 181.715C121.258 172.018 119.568 161.426 116.039 151.576C114.715 147.883 115.183 143.574 112 141        M357 228C356.379 234.285 359.82 240.287 362.164 246C367.058 257.931 368.547 273.894 383.285 276.487C398.717 279.201 415.464 264.678 427.59 257.59C436.864 252.169 448.375 252.46 457.115 246.164C471.701 235.659 478.857 211.62 474.295 194.09C471.776 184.412 464.105 174.553 459 166C452.653 164.291 449.946 156.372 443.826 153.878C428.061 147.452 399.38 145.111 383 150.88C360.033 158.97 347.999 178.517 348 202C348 209.851 350.054 223.136 357 228M273 152.424C250.777 155.306 231.955 161.785 211.039 169.509C201.614 172.99 188.619 176.71 182.749 185.435C168.629 206.422 172.712 242.351 193.804 256.498C204.728 263.825 218.105 263.912 229.83 268.992C245.194 275.648 257.044 286.056 275 283.575C285.009 282.192 291.387 274.68 293.679 264.965C295.796 255.991 295.716 246.926 297.514 238C301.288 219.26 307.408 198.181 299.509 179.961C294.507 168.422 287.747 150.512 273 152.424M326 254C313.977 239.739 327.216 218.528 320.258 203.148C318.213 198.629 311.777 199.574 310.434 204.059C308.281 211.243 308.899 224.893 311 232C307.502 235.01 307.27 242.67 308 247C303.995 250.239 305.429 256.414 303.91 261C296.847 282.33 301.03 306.201 307.645 327C309.558 333.015 313.001 353.75 322.853 350.306C330.412 347.664 321.603 336.215 326.588 332.921C331.099 329.941 330.384 346.445 338.682 340.971C342.87 338.209 343.424 325.879 345.17 321.17C355.116 294.334 352.014 266.377 345.17 238.91C342.191 226.956 338.378 212.193 338.015 200C337.897 196.03 339.408 186.926 332.925 187.478C325.623 188.099 328.025 200.045 327.999 205C327.967 211.269 325.311 216.802 325.039 223C324.588 233.282 326.544 243.629 326 254M490.465 202.859C482.083 206.702 480.948 228.84 481.001 236.999C481.185 265.542 491.711 292.297 483.61 320.985C481.619 328.039 474.037 330.17 471.593 336.263C469.494 341.494 473.866 345.034 478.83 343.681C491.548 340.215 495.945 320.866 497.424 310C501.92 276.966 489.267 244.537 497.526 211.985C498.725 207.262 496.787 199.959 490.465 202.859M136 213C135.51 225.236 141.862 235.124 143.696 247C147.02 268.531 139.544 292.217 146.165 313.09C147.823 318.315 147.623 326.201 152 330L151 332C153.834 334.94 158.137 345.915 163.442 343.123C166.424 341.554 166.271 336.838 165.853 334C164.683 326.062 158.793 318.305 157.26 309.91C152.744 285.178 159.764 260.7 153.3 235.999C150.598 225.674 148.29 213.043 136 213M298 430C303.864 429.682 310.535 433.283 314 427C319.329 425.924 318 419.441 318 415C318 405.959 322.224 383.954 312.995 379.299C304.874 375.201 288.949 382.276 284.495 390.301C281.151 396.326 281.445 402.484 280.231 409C279.478 413.045 277.121 417.603 278.318 421.776C280.664 429.952 292.917 426.149 298 430M339 377.634C335.739 378.494 327.942 379.447 326.028 382.318C321.006 389.848 325.524 409.038 324.91 418C324.67 421.513 322.889 426.474 325.742 429.397C329.521 433.267 347.862 433.658 352.999 432.246C375.459 426.076 362.889 371.333 339 377.634M378.015 385.448C368.148 387.077 369 396.071 369 404C369 417.715 371.021 435.201 389.91 430.696C399.027 428.521 399 418.32 399 411C399 397.166 395.791 382.511 378.015 385.448M236 418C235.617 412.047 236.012 405.973 236 400C235.974 387.517 212.652 381.947 205.988 392.613C198.176 405.118 212.842 424.248 225.961 423.905C230.287 423.792 232.8 420.433 236 418M250.17 388.703C230.565 396.047 241.241 436.52 263.576 429.266C284.81 422.37 276.352 378.895 250.17 388.703M421.004 388.429C405.551 390.749 396.378 413.338 409.13 424.891C413.767 429.093 423.123 428.858 428.961 427.772C436.101 426.445 436.503 418.944 436.91 413C437.749 400.758 436.168 386.152 421.004 388.429        M471 449C478.272 467.183 493.56 485.788 505.449 501.211C508.92 505.714 512.215 515.145 518.04 516.682C526.725 518.974 546.22 519.149 554.857 516.683C559.107 515.469 560.276 503.979 565.683 507.086C569.314 509.173 566.968 517.529 567.004 521C567.124 532.695 571.148 540.195 577 550C584.095 551.289 590.653 557.917 598 560.025C615.196 564.961 637.233 558.616 651.961 549.489C673.794 535.96 682.598 491.902 655 479C651.769 490.138 641.134 478.733 652 477C652.307 471.387 655.599 468.612 657.71 463.711C662.715 452.091 667.545 438.861 665.812 426.015C661.147 391.443 613.062 376.955 587.725 397.836C577.975 405.871 571.023 415.984 567.539 428.09C566.021 433.362 568.162 445.338 562.656 448.142C556.109 451.476 543.262 449 536 449L471 449M74 474L76 474C78.6764 471.104 89.1836 468.585 85.6235 475.576C82.9267 480.873 76.4177 482.688 72.2554 486.4C65.2783 492.622 61.8542 500.191 56 507C55.168 518.251 54.8502 527.254 59.2099 538C70.0333 564.678 108.768 592.123 133.816 566.872C141.62 559.005 149.318 546.565 148.612 535.08C148.343 530.708 140.182 517.186 145.449 514.578C150.489 512.082 154.283 519.955 159.019 520.137C176.121 520.796 194.102 517.863 211 521L220 508L228 496C231.756 481.418 245.876 465.654 254 453C231.372 448.799 206.853 455 184 455C177.481 455 164.843 457.416 159.153 453.972C154.57 451.199 159.771 438.499 158.737 433.17C155.429 416.119 143.091 401.379 125 399.133C98.3605 395.825 63.2099 415.733 62.0694 445C61.6312 456.247 67.9562 465.261 74 474M364 452L364 453L387.071 489.285L395 503L400 514C403.554 515.038 405.626 518.25 403.957 522C397.052 537.508 386.799 545.933 399.714 562.535C410.453 576.342 431.258 574.456 445.83 569.791C450.209 568.389 454.034 562.884 458.945 563.507C463.927 564.139 462.223 570.217 464.434 573.292C468.399 578.807 479.473 582.842 486 581.74C516.276 576.629 516.447 536.984 496.575 520.297C487.935 513.042 472.666 509.885 465.804 501.779C457.041 491.428 449.756 478.391 442.31 467.079C439.084 462.178 435.343 453.3 429.871 450.603C424.685 448.047 416.56 449.851 411 449.985C395.281 450.364 379.442 451.55 364 452M291 452L272.12 483.275L256 506L256 507C258.267 509.453 259.87 513.537 255.771 515.397C250.081 517.978 243.165 516.864 237 519.866C220.002 528.141 210.108 548.542 218.674 566.576C227.903 586.002 248.249 586.086 262.025 571.112C265.266 567.59 266.504 556.103 271.069 555.451C279.7 554.218 275.281 569.821 280.189 573.517C290.454 581.247 321.99 567.004 322 554C325.606 551.671 328.498 542.18 325 539C326.373 531.221 320.229 520.803 312 521C312.503 510.166 321.454 501.071 327.416 492.59C335.796 480.669 346.123 465.708 351 452L291 452        M112 141z"
     id="path4" />
  <path
     id="path2987"
     d="m 357,228 c -0.621,6.285 2.82,12.287 5.164,18 4.894,11.931 6.383,27.894 21.121,30.487 15.432,2.714 32.179,-11.809 44.305,-18.897 9.274,-5.421 20.785,-5.13 29.525,-11.426 14.586,-10.505 21.742,-34.544 17.18,-52.074 -2.519,-9.678 -10.19,-19.537 -15.295,-28.09 -6.347,-1.709 -9.054,-9.628 -15.174,-12.122 -15.765,-6.426 -44.446,-8.767 -60.826,-2.998 -22.967,8.09 -35.001,27.637 -35,51.12 0,7.851 2.054,21.136 9,26 m -84,-75.576 c -22.223,2.882 -41.045,9.361 -61.961,17.085 -9.425,3.481 -22.42,7.201 -28.29,15.926 -14.12,20.987 -10.037,56.916 11.055,71.063 10.924,7.327 24.301,7.414 36.026,12.494 15.364,6.656 27.214,17.064 45.17,14.583 10.009,-1.383 16.387,-8.895 18.679,-18.61 2.117,-8.974 2.037,-18.039 3.835,-26.965 3.774,-18.74 9.894,-39.819 1.995,-58.039 C 294.507,168.422 287.747,150.512 273,152.424 M 326,254 c -12.023,-14.261 1.216,-35.472 -5.742,-50.852 -2.045,-4.519 -8.481,-3.574 -9.824,0.911 -2.153,7.184 -1.535,20.834 0.566,27.941 -3.498,3.01 -3.73,10.67 -3,15 -4.005,3.239 -2.571,9.414 -4.09,14 -7.063,21.33 -2.88,45.201 3.735,66 1.913,6.015 5.356,26.75 15.208,23.306 7.559,-2.642 -1.25,-14.091 3.735,-17.385 4.511,-2.98 3.796,13.524 12.094,8.05 4.188,-2.762 4.742,-15.092 6.488,-19.801 9.946,-26.836 6.844,-54.793 0,-82.26 -2.979,-11.954 -6.792,-26.717 -7.155,-38.91 -0.118,-3.97 1.393,-13.074 -5.09,-12.522 -7.302,0.621 -4.9,12.567 -4.926,17.522 -0.032,6.269 -2.688,11.802 -2.96,18 -0.451,10.282 1.505,20.629 0.961,31 m 164.465,-51.141 c -8.382,3.843 -9.517,25.981 -9.464,34.14 0.184,28.543 10.71,55.298 2.609,83.986 -1.991,7.054 -9.573,9.185 -12.017,15.278 -2.099,5.231 2.273,8.771 7.237,7.418 12.718,-3.466 17.115,-22.815 18.594,-33.681 4.496,-33.034 -8.157,-65.463 0.102,-98.015 1.199,-4.723 -0.739,-12.026 -7.061,-9.126 M 136,213 c -0.49,12.236 5.862,22.124 7.696,34 3.324,21.531 -4.152,45.217 2.469,66.09 1.658,5.225 1.458,13.111 5.835,16.91 l -1,2 c 2.834,2.94 7.137,13.915 12.442,11.123 2.982,-1.569 2.829,-6.285 2.411,-9.123 -1.17,-7.938 -7.06,-15.695 -8.593,-24.09 -4.516,-24.732 2.504,-49.21 -3.96,-73.911 C 150.598,225.674 148.29,213.043 136,213 m 162,217 c 5.864,-0.318 12.535,3.283 16,-3 5.329,-1.076 4,-7.559 4,-12 0,-9.041 4.224,-31.046 -5.005,-35.701 -8.121,-4.098 -24.046,2.977 -28.5,11.002 -3.344,6.025 -3.05,12.183 -4.264,18.699 -0.753,4.045 -3.11,8.603 -1.913,12.776 2.346,8.176 14.599,4.373 19.682,8.224 m 41,-52.366 c -3.261,0.86 -11.058,1.813 -12.972,4.684 -5.022,7.53 -0.504,26.72 -1.118,35.682 -0.24,3.513 -2.021,8.474 0.832,11.397 3.779,3.87 22.12,4.261 27.257,2.849 22.46,-6.17 9.89,-60.913 -13.999,-54.612 m 39.015,7.814 C 368.148,387.077 369,396.071 369,404 c 0,13.715 2.021,31.201 20.91,26.696 9.117,-2.175 9.09,-12.376 9.09,-19.696 0,-13.834 -3.209,-28.489 -20.985,-25.552 M 236,418 c -0.383,-5.953 0.012,-12.027 0,-18 -0.026,-12.483 -23.348,-18.053 -30.012,-7.387 -7.812,12.505 6.854,31.635 19.973,31.292 4.326,-0.113 6.839,-3.472 10.039,-5.905 m 14.17,-29.297 c -19.605,7.344 -8.929,47.817 13.406,40.563 21.234,-6.896 12.776,-50.371 -13.406,-40.563 m 170.834,-0.274 c -15.453,2.32 -24.626,24.909 -11.874,36.462 4.637,4.202 13.993,3.967 19.831,2.881 7.14,-1.327 7.542,-8.828 7.949,-14.772 0.839,-12.242 -0.742,-26.848 -15.906,-24.571"
     style="fill:#ffffff;fill-opacity:1;stroke:none;stroke-opacity:1"
     inkscape:connector-curvature="0"
     sodipodi:nodetypes="cccsccccccccccscsccccccccccsccccccccccccccccccccccccccscccscsccccccccccscscccccccccccccc" />
</svg>

<?xml version="1.0" encoding="UTF-8" standalone="no"?>
<!DOCTYPE svg PUBLIC "-//W3C//DTD SVG 20010904//EN"
"http://www.w3.org/TR/2001/REC-SVG-20010904/DTD/svg10.dtd">
<svg
   width="700"
   height="608"
   xmlns="http://www.w3.org/2000/svg"
   xmlns:sodipodi="http://sodipodi.sourceforge.net/DTD/sodipodi-0.dtd"
   xmlns:xlink="http://www.w3.org/1999/xlink">
    <path
       style="fill:#000000;stroke:none;"
       d="M112 141L105 82L105 55C86.9438 55 69.0248 56 51 56C45.7316 56 35.0181 53.2287 30.7423 56.9884C27.9537 59.4404 28.8945 65.6924 29.0394 69C29.5397 80.4263 32 91.6134 32 103C32 156.43 50.8947 211.911 74.1944 259.718C94.243 300.855 125.221 334.586 159.996 363.742C171.363 373.272 184.398 380.399 195.749 389.8C202.369 395.282 199.891 402.401 202.69 409.572C206.629 419.666 214.244 425.077 224.004 429.076C229.822 431.46 233.526 427.559 238.961 427.598C244.933 427.641 249.969 434.957 256.09 435.856C263.218 436.904 267.606 431.509 274.09 431.52C278.032 431.527 281.344 434.395 285 435.454C290.908 437.166 300.047 438.329 306.17 438.44C311.237 438.531 315.735 435.723 321 436.091C332.461 436.891 343.021 440.5 355 438.856C359.88 438.187 364.074 433.584 368.961 433.598C376.506 433.62 383.464 438.143 391.996 437.2C397.409 436.601 400.834 430.186 405.925 430.422C414.623 430.825 420.075 438.463 429.996 435.451C442.218 431.739 438.24 417.616 448.005 412.394C472.539 399.271 498.022 391.049 520.282 373.351C527.205 367.846 537.124 362.151 541 354C548.631 352.586 555.182 341.364 560.388 335.884C574.355 321.185 585.899 303.337 597.045 286.389C601.821 279.126 605.848 268.851 612 263C613.387 255.777 618.934 248.244 622.174 241.575C628.279 229.007 634.713 215.124 639.026 201.83C654.98 152.657 665 104.063 665 52L513 52C513.04 65.9838 517.974 80.1224 518.946 94.0146C520.345 113.999 517.106 134.548 513.376 154C512.13 160.496 511.876 183.482 503.925 185.149C500.185 185.933 498.627 181.854 497.715 178.999C494.752 169.735 492.488 160.676 488.13 151.87C470.758 116.761 448.814 87.3414 417.335 63.3063C394.511 45.8799 367.701 31.2559 339 26.4429C274.66 15.6535 203.974 46.6344 166.953 100.285C154.395 118.485 146.175 138.713 140.843 160.09C139.586 165.131 137.355 170.866 137.044 176C136.81 179.87 138.321 186.213 135.972 189.562C130.945 196.731 126.779 184.867 125.424 181.715C121.258 172.018 119.568 161.426 116.039 151.576C114.715 147.883 115.183 143.574 112 141
       M357 228C356.379 234.285 359.82 240.287 362.164 246C367.058 257.931 368.547 273.894 383.285 276.487C398.717 279.201 415.464 264.678 427.59 257.59C436.864 252.169 448.375 252.46 457.115 246.164C471.701 235.659 478.857 211.62 474.295 194.09C471.776 184.412 464.105 174.553 459 166C452.653 164.291 449.946 156.372 443.826 153.878C428.061 147.452 399.38 145.111 383 150.88C360.033 158.97 347.999 178.517 348 202C348 209.851 350.054 223.136 357 228M273 152.424C250.777 155.306 231.955 161.785 211.039 169.509C201.614 172.99 188.619 176.71 182.749 185.435C168.629 206.422 172.712 242.351 193.804 256.498C204.728 263.825 218.105 263.912 229.83 268.992C245.194 275.648 257.044 286.056 275 283.575C285.009 282.192 291.387 274.68 293.679 264.965C295.796 255.991 295.716 246.926 297.514 238C301.288 219.26 307.408 198.181 299.509 179.961C294.507 168.422 287.747 150.512 273 152.424M326 254C313.977 239.739 327.216 218.528 320.258 203.148C318.213 198.629 311.777 199.574 310.434 204.059C308.281 211.243 308.899 224.893 311 232C307.502 235.01 307.27 242.67 308 247C303.995 250.239 305.429 256.414 303.91 261C296.847 282.33 301.03 306.201 307.645 327C309.558 333.015 313.001 353.75 322.853 350.306C330.412 347.664 321.603 336.215 326.588 332.921C331.099 329.941 330.384 346.445 338.682 340.971C342.87 338.209 343.424 325.879 345.17 321.17C355.116 294.334 352.014 266.377 345.17 238.91C342.191 226.956 338.378 212.193 338.015 200C337.897 196.03 339.408 186.926 332.925 187.478C325.623 188.099 328.025 200.045 327.999 205C327.967 211.269 325.311 216.802 325.039 223C324.588 233.282 326.544 243.629 326 254M490.465 202.859C482.083 206.702 480.948 228.84 481.001 236.999C481.185 265.542 491.711 292.297 483.61 320.985C481.619 328.039 474.037 330.17 471.593 336.263C469.494 341.494 473.866 345.034 478.83 343.681C491.548 340.215 495.945 320.866 497.424 310C501.92 276.966 489.267 244.537 497.526 211.985C498.725 207.262 496.787 199.959 490.465 202.859M136 213C135.51 225.236 141.862 235.124 143.696 247C147.02 268.531 139.544 292.217 146.165 313.09C147.823 318.315 147.623 326.201 152 330L151 332C153.834 334.94 158.137 345.915 163.442 343.123C166.424 341.554 166.271 336.838 165.853 334C164.683 326.062 158.793 318.305 157.26 309.91C152.744 285.178 159.764 260.7 153.3 235.999C150.598 225.674 148.29 213.043 136 213M298 430C303.864 429.682 310.535 433.283 314 427C319.329 425.924 318 419.441 318 415C318 405.959 322.224 383.954 312.995 379.299C304.874 375.201 288.949 382.276 284.495 390.301C281.151 396.326 281.445 402.484 280.231 409C279.478 413.045 277.121 417.603 278.318 421.776C280.664 429.952 292.917 426.149 298 430M339 377.634C335.739 378.494 327.942 379.447 326.028 382.318C321.006 389.848 325.524 409.038 324.91 418C324.67 421.513 322.889 426.474 325.742 429.397C329.521 433.267 347.862 433.658 352.999 432.246C375.459 426.076 362.889 371.333 339 377.634M378.015 385.448C368.148 387.077 369 396.071 369 404C369 417.715 371.021 435.201 389.91 430.696C399.027 428.521 399 418.32 399 411C399 397.166 395.791 382.511 378.015 385.448M236 418C235.617 412.047 236.012 405.973 236 400C235.974 387.517 212.652 381.947 205.988 392.613C198.176 405.118 212.842 424.248 225.961 423.905C230.287 423.792 232.8 420.433 236 418M250.17 388.703C230.565 396.047 241.241 436.52 263.576 429.266C284.81 422.37 276.352 378.895 250.17 388.703M421.004 388.429C405.551 390.749 396.378 413.338 409.13 424.891C413.767 429.093 423.123 428.858 428.961 427.772C436.101 426.445 436.503 418.944 436.91 413C437.749 400.758 436.168 386.152 421.004 388.429
       M471 449C478.272 467.183 493.56 485.788 505.449 501.211C508.92 505.714 512.215 515.145 518.04 516.682C526.725 518.974 546.22 519.149 554.857 516.683C559.107 515.469 560.276 503.979 565.683 507.086C569.314 509.173 566.968 517.529 567.004 521C567.124 532.695 571.148 540.195 577 550C584.095 551.289 590.653 557.917 598 560.025C615.196 564.961 637.233 558.616 651.961 549.489C673.794 535.96 682.598 491.902 655 479C651.769 490.138 641.134 478.733 652 477C652.307 471.387 655.599 468.612 657.71 463.711C662.715 452.091 667.545 438.861 665.812 426.015C661.147 391.443 613.062 376.955 587.725 397.836C577.975 405.871 571.023 415.984 567.539 428.09C566.021 433.362 568.162 445.338 562.656 448.142C556.109 451.476 543.262 449 536 449L471 449M74 474L76 474C78.6764 471.104 89.1836 468.585 85.6235 475.576C82.9267 480.873 76.4177 482.688 72.2554 486.4C65.2783 492.622 61.8542 500.191 56 507C55.168 518.251 54.8502 527.254 59.2099 538C70.0333 564.678 108.768 592.123 133.816 566.872C141.62 559.005 149.318 546.565 148.612 535.08C148.343 530.708 140.182 517.186 145.449 514.578C150.489 512.082 154.283 519.955 159.019 520.137C176.121 520.796 194.102 517.863 211 521L220 508L228 496C231.756 481.418 245.876 465.654 254 453C231.372 448.799 206.853 455 184 455C177.481 455 164.843 457.416 159.153 453.972C154.57 451.199 159.771 438.499 158.737 433.17C155.429 416.119 143.091 401.379 125 399.133C98.3605 395.825 63.2099 415.733 62.0694 445C61.6312 456.247 67.9562 465.261 74 474M364 452L364 453L387.071 489.285L395 503L400 514C403.554 515.038 405.626 518.25 403.957 522C397.052 537.508 386.799 545.933 399.714 562.535C410.453 576.342 431.258 574.456 445.83 569.791C450.209 568.389 454.034 562.884 458.945 563.507C463.927 564.139 462.223 570.217 464.434 573.292C468.399 578.807 479.473 582.842 486 581.74C516.276 576.629 516.447 536.984 496.575 520.297C487.935 513.042 472.666 509.885 465.804 501.779C457.041 491.428 449.756 478.391 442.31 467.079C439.084 462.178 435.343 453.3 429.871 450.603C424.685 448.047 416.56 449.851 411 449.985C395.281 450.364 379.442 451.55 364 452M291 452L272.12 483.275L256 506L256 507C258.267 509.453 259.87 513.537 255.771 515.397C250.081 517.978 243.165 516.864 237 519.866C220.002 528.141 210.108 548.542 218.674 566.576C227.903 586.002 248.249 586.086 262.025 571.112C265.266 567.59 266.504 556.103 271.069 555.451C279.7 554.218 275.281 569.821 280.189 573.517C290.454 581.247 321.99 567.004 322 554C325.606 551.671 328.498 542.18 325 539C326.373 531.221 320.229 520.803 312 521C312.503 510.166 321.454 501.071 327.416 492.59C335.796 480.669 346.123 465.708 351 452L291 452
       M112 141z"/>
</svg>
